svgs/angkas.svg

<svg xmlns="http://www.w3.org/2000/svg" width="192" height="192" fill="none" viewBox="0 0 192 192"><path stroke="#000" stroke-linecap="round" stroke-linejoin="round" stroke-width="12" d="M137 129c0 8.837 7.387 16 16.5 16s16.5-7.163 16.5-16c0-7.324-5.074-13.498-12-15.398M137 129c0-8.837 7.387-16 16.5-16 1.56 0 3.07.21 4.5.602M137 129h-22.5M71 129c0 8.837-7.387 16-16.5 16S38 137.837 38 129c0-5.058 2.42-9.568 6.2-12.5M71 129h25.5M71 129c-11.2 0-22.534-8.333-26.8-12.5m0 0L22 92.5 86.5 103l10 26m0 0h18m0 0 12-43-13-21.5L128 57l34 42-4 14.602M22 76l64.5 10.5M116 47l-4 2"/></svg>

<svg width="192" height="192" viewBox="0 0 192 192" fill="none" xmlns="http://www.w3.org/2000/svg">
    <path d="M137 129C137 137.837 144.387 145 153.5 145C162.613 145 170 137.837 170 129C170 121.676 164.926 115.502 158 113.602M137 129C137 120.163 144.387 113 153.5 113C155.06 113 156.57 113.21 158 113.602M137 129H114.5M71 129C71 137.837 63.6127 145 54.5 145C45.3873 145 38 137.837 38 129C38 123.942 40.4204 119.432 44.1994 116.5M71 129H96.5M71 129C59.8 129 48.4663 120.667 44.1994 116.5M44.1994 116.5L22 92.5L86.5 103L96.5 129M96.5 129H114.5M114.5 129L126.5 86L113.5 64.5L128 57L162 99L158 113.602M22 76L86.5 86.5M116 47L112 49" stroke="#000000" stroke-width="12" stroke-linecap="round" stroke-linejoin="round"/>
</svg>
